X:1
T:Title
%%score { ( 1 3 4 ) | ( 2 5 ) }
L:1/8
M:3/4
K:Bb
V:1 treble nm="Grand Piano"
V:3 treble 
V:4 treble 
V:2 bass 
V:5 bass 
V:1
 z2 z2[Q:1/4=96] [B,D]>[CE] | [DF]3 [Fd] [EA][Ec] | [DB]2 D2 [DF][DB] | A3 F GA |[M:2/4] [DB]4 | %5
[M:1/4] [B,D]>[CE] |[M:3/4] [DF]3 [Fd] [EA][Ec] | [DB]2 D2 [DF][FB] |[M:15/16] AF/-F/d- d3- d/c | %9
[M:2/4] [DB]4 |[M:1/4] BA |[M:3/4] B,B, z B [Ge][EG] | [EG]2 z B, Bd | c4 z2 | %14
[M:2/4] [=E_d]2[K:bass][K:treble] [F=d]2 |[M:1/4] DE |[M:3/4] B,B, B,[Fd] AB | %17
[M:27/32] c/4-c/4-c/4-c/4-c/-<c/G/4-G/4-G/4-G/4-G/-<G/e/4-e/4-e/4-e/4-e/-<e/-[E-G-e]/[EG]/4 | %18
[M:3/4] (9:8:10[DF]-[DF]/8-[B,DF]-[B,D-F-]/8 [B,DF]-[B,DF]/8d-d/8 c3/2[DB]3/4 |[M:2/4] [DB]4 |] %20
V:2
 z2 z2 [B,,F,]>[B,,F,] | [B,,B,]3 [B,,B,] [F,C][F,A,] | [B,,F,]2 [B,,B,]2 [B,,B,][B,,B,] | %3
 [F,CE]3 [F,A,E] [F,B,E][F,CE] |[M:2/4] [B,,B,]4 |[M:1/4] [B,,F,]>[B,,F,] | %6
[M:3/4] [B,,B,]3 [B,,B,] [F,C][F,A,] | [B,,F,]2 [B,,B,]2 [B,,B,][D,B,] | %8
[M:15/16] [F,CE][F,A,E]/-[F,A,E]/[F,B,F]- [F,B,F]3- [F,B,F]/[F,A,E] |[M:2/4] [B,,F,]4 | %10
[M:1/4][K:treble] DF |[M:3/4][K:bass] E,E, z G [E,B,]2 | [B,,B,][B,,B,] [B,,B,]B,,[K:treble] DF | %13
 E-[F,E-] E[CE] [B,D][A,E] |[M:2/4] .[B,,G,]2 [B,,B,]B,, |[M:1/4] B,C | %16
[M:3/4] B,,B,, B,,[B,,B,] [F,CE][G,B,D] | %17
[M:27/32] [E,G,E]/4-[E,G,E]/4-[E,G,E]/4-[E,G,E]/4-[E,G,E]/-<[E,G,E]/[E,B,E]/4-[E,B,E]/4-[E,B,E]/4-[E,B,E]/4-[E,B,E]/-<[E,B,E]/[E,B,]/4-[E,B,]/4-[E,B,]/4-[E,B,]/4-[E,B,]/-<[E,B,]/[E,B,]3/4 | %18
[M:3/4] (9:8:10[F,B,]-[F,B,]/8F,-F,/8 F,-F,/8[F,B,F]-[F,B,F]/8 [F,A,E]3/2[B,,F,]3/4 | %19
[M:2/4] [B,,F,]4 |] %20
V:3
 x6 | x6 | x6 | x6 |[M:2/4] x4 |[M:1/4] x2 |[M:3/4] x6 | x6 |[M:15/16] x15/2 |[M:2/4] x4 | %10
[M:1/4] x2 |[M:3/4] [EG]4 z2 | z2 [DF]2 z2 | z A, A,A Bc | %14
[M:2/4] z[K:bass] [B,,G,][K:treble] z B, |[M:1/4] x2 |[M:3/4] [DF]4 z2 | %17
[M:27/32] z/4 z/4 z/4 z/4 z/4 z/4 z/4 z/4 z/4 z/4 z/4 z/4 z/4 z/4 z/ G/4-G/4-G/4-G/4-G/-<G/ z/4 z/ | %18
[M:3/4] x6 |[M:2/4] x4 |] %20
V:4
 x6 | x6 | x6 | x6 |[M:2/4] x4 |[M:1/4] x2 |[M:3/4] x6 | x6 |[M:15/16] x15/2 |[M:2/4] x4 | %10
[M:1/4] x2 |[M:3/4] z2 B,2 z2 | x6 | x6 |[M:2/4] x[K:bass] x[K:treble] x2 |[M:1/4] x2 |[M:3/4] x6 | %17
[M:27/32] x27/4 |[M:3/4] x6 |[M:2/4] x4 |] %20
V:5
 x6 | x6 | x6 | x6 |[M:2/4] x4 |[M:1/4] x2 |[M:3/4] x6 | x6 |[M:15/16] x15/2 |[M:2/4] x4 | %10
[M:1/4][K:treble] x2 |[M:3/4][K:bass] z2 E,2 z2 | x4[K:treble] x2 | .[F,A,]2 F,2 F,2 |[M:2/4] x4 | %15
[M:1/4] x2 |[M:3/4] x6 |[M:27/32] x27/4 |[M:3/4] x6 |[M:2/4] x4 |] %20

